build/img/icons/star-2.svg

<svg width="147" height="51" viewBox="0 0 147 51" fill="none" xmlns="http://www.w3.org/2000/svg">
<path d="M12.2194 49.5963C12.2194 49.5963 15.0395 39.6126 4.2457 38.1773C4.2457 38.1773 15.1118 36.0343 15.2564 28.8776C15.2564 28.8776 15.2661 37.0386 23.7652 39.7312C23.7652 39.7312 15.5746 39.0472 12.2194 49.5963Z" fill="white"/>
<path d="M110.973 39.482C110.973 39.482 121.967 22.0264 102.741 15.1746C102.741 15.1746 124.164 15.4061 128.558 2.16557C128.558 2.16557 123.872 17.3318 138.11 25.63C138.11 25.63 123.287 21.1833 110.973 39.482Z" fill="white"/>
</svg>

<svg width="147" height="51" fill="none" xmlns="http://www.w3.org/2000/svg"><path d="M12.22 49.596s2.82-9.983-7.974-11.419c0 0 10.866-2.143 11.01-9.3 0 0 .01 8.162 8.51 10.854 0 0-8.191-.684-11.547 9.865zm98.753-10.114s10.994-17.456-8.232-24.307c0 0 21.423.231 25.817-13.01 0 0-4.686 15.167 9.552 23.465 0 0-14.823-4.447-27.137 13.852z" fill="#fff"/></svg>
